Sources/FrostedUI/Resources/Icons.xcassets/profileX12.imageset/profile-x-12.svg

<svg width="12" height="12" viewBox="0 0 12 12" fill="none" xmlns="http://www.w3.org/2000/svg" data-fui-icon="true">
  <path
    d="M6.00146 5.875C6.30687 5.87505 6.60402 5.90299 6.89014 5.95703C7.29684 6.0341 7.56453 6.4262 7.48779 6.83301C7.41094 7.23988 7.01867 7.50727 6.61182 7.43066C6.41942 7.39433 6.21547 7.37505 6.00146 7.375C5.98096 7.375 5.96016 7.37562 5.94092 7.37598H5.93994C5.84286 7.37767 5.7472 7.38391 5.65381 7.39355C5.59947 7.39916 5.54546 7.4059 5.49268 7.41406C5.4676 7.41795 5.44226 7.4223 5.41748 7.42676C5.35765 7.43752 5.29846 7.44993 5.24072 7.46387C4.26209 7.70051 3.53714 8.39338 3.1958 9.31445L3.19775 9.31641C3.21784 9.34003 3.27082 9.375 3.34912 9.375H6.12646C6.54029 9.37545 6.87646 9.71107 6.87646 10.125C6.87646 10.5389 6.54029 10.8745 6.12646 10.875H3.34912C2.83884 10.875 2.36069 10.6525 2.04834 10.2803C1.72568 9.89549 1.58443 9.34785 1.78857 8.7959C2.30159 7.40914 3.43055 6.34413 4.92822 5.99707C4.99775 5.98094 5.0683 5.96608 5.13916 5.95312C5.17722 5.94619 5.2159 5.93961 5.25439 5.93359C5.32876 5.92195 5.40426 5.91243 5.47998 5.9043C5.51357 5.90069 5.54765 5.89645 5.58154 5.89355C5.6908 5.88419 5.80177 5.87794 5.91357 5.87598L6.00146 5.875ZM9.47119 7.46973C9.76412 7.17725 10.239 7.17697 10.5317 7.46973C10.8241 7.76251 10.8241 8.23749 10.5317 8.53027L10.062 9L10.5317 9.46973C10.8241 9.76251 10.8241 10.2375 10.5317 10.5303C10.239 10.823 9.76412 10.8227 9.47119 10.5303L9.00146 10.0605L8.53174 10.5303C8.23898 10.823 7.76412 10.8227 7.47119 10.5303C7.1783 10.2374 7.1783 9.76262 7.47119 9.46973L7.94092 9L7.47119 8.53027C7.1783 8.23738 7.1783 7.76262 7.47119 7.46973C7.76412 7.17725 8.23898 7.17697 8.53174 7.46973L9.00146 7.93945L9.47119 7.46973ZM6.00146 0.625C7.45079 0.625451 8.62646 1.80052 8.62646 3.25C8.62646 4.69948 7.45079 5.87455 6.00146 5.875C4.55171 5.875 3.37646 4.69975 3.37646 3.25C3.37646 1.80025 4.55171 0.625 6.00146 0.625ZM6.00146 2.125C5.38013 2.125 4.87646 2.62868 4.87646 3.25C4.87646 3.87132 5.38013 4.375 6.00146 4.375C6.62238 4.37455 7.12646 3.87103 7.12646 3.25C7.12646 2.62897 6.62238 2.12545 6.00146 2.125Z"
    fill="currentColor"
  />
</svg>

<svg xmlns="http://www.w3.org/2000/svg" width="12" height="12" fill="none" data-fui-icon="true" viewBox="0 0 12 12"><path fill="currentColor" d="M6.001 5.875q.46 0 .89.082a.75.75 0 0 1-.28 1.474 3.3 3.3 0 0 0-.61-.056l-.06.001H5.94a3.4 3.4 0 0 0-.7.088c-.978.237-1.703.93-2.044 1.85l.002.002c.02.024.073.059.151.059h2.777a.75.75 0 0 1 0 1.5H3.35a1.7 1.7 0 0 1-1.3-.595 1.48 1.48 0 0 1-.26-1.484c.513-1.387 1.642-2.452 3.14-2.799a5 5 0 0 1 .551-.093q.051-.006.102-.01a5 5 0 0 1 .332-.018zm3.47 1.595a.75.75 0 0 1 1.06 1.06l-.469.47.47.47a.75.75 0 0 1-1.06 1.06l-.47-.47-.47.47a.75.75 0 0 1-1.06-1.06L7.94 9l-.47-.47a.75.75 0 1 1 1.06-1.06l.47.47zM6.001.625A2.626 2.626 0 1 1 6 5.876 2.626 2.626 0 0 1 6.001.625m0 1.5a1.125 1.125 0 1 0 0 2.25 1.125 1.125 0 0 0 0-2.25"/></svg>
